X:207
T: VERGANGEN IST DER LICHTE TAG
N: B0245
O: Europa, Mitteleuropa, Deutschland
R: Tageszeiten - Lied, Nacht
M: 6/8
L: 1/8
K: C
G | C2D_E2F | G2GG2
G | _A2GF_EF | G2F_E2
E | G2Gc2_B | _B2G_E2
E | _AGFG2_E | D_EDC2

@@@ Tune index: 2010
